assets/icons/functional/arrows/arrow-square-up-left.svg

<svg width="32" height="32" viewBox="0 0 32 32" fill="none" xmlns="http://www.w3.org/2000/svg"><g id="Icon-ArrowSquareUpLeft"><g clip-path="url(#clip0_4_1648)"><g id="size=md (32px)"><g id="ArrowSquareUpLeft"><path id="Vector" d="M27 26V6C27 5.44772 26.5523 5 26 5L6 5C5.44772 5 5 5.44772 5 6V26C5 26.5523 5.44772 27 6 27H26C26.5523 27 27 26.5523 27 26Z" stroke="#101828" stroke-width="2" stroke-linecap="round" stroke-linejoin="round"/><path id="Vector_2" d="M18.5 12.5H12.5V18.5" stroke="#101828" stroke-width="2" stroke-linecap="round" stroke-linejoin="round"/><path id="Vector_3" d="M19.5 19.5L12.5 12.5" stroke="#101828" stroke-width="2" stroke-linecap="round" stroke-linejoin="round"/></g></g></g></g><defs><clipPath id="clip0_4_1648"><rect width="32" height="32" rx="5" fill="white"/></clipPath></defs></svg>

<svg xmlns="http://www.w3.org/2000/svg" width="32" height="32" fill="none"><path stroke="#101828" stroke-linecap="round" stroke-linejoin="round" stroke-width="2" d="M27 26V6a1 1 0 0 0-1-1H6a1 1 0 0 0-1 1v20a1 1 0 0 0 1 1h20a1 1 0 0 0 1-1Z"/><path stroke="#101828" stroke-linecap="round" stroke-linejoin="round" stroke-width="2" d="M18.5 12.5h-6v6m7 1-7-7"/></svg>
